X:23
T: ZWEI WEISSE BLUEMELEIN
N: E0638
O: Europa, Mitteleuropa, Deutschland, Schleswig - Holstein
R: Liebes - Lied, Treue
M: 3/4
L: 1/16
K: Eb
B2B3G | E4E2G2A3G | F4F2
E2D2F2 | d3dd3cB3A | G2B2e2z
Bc3B | E4E2G2A3G | F6
E2D2F2 | d3cB3BA2D2 | E4z2

@@@ Tune index: 4336
